symbols/web/slideshow/materialsymbolsrounded/slideshow_wght700grad200_40px.svg

<svg xmlns="http://www.w3.org/2000/svg" height="40" width="40"><path d="m19.167 25.542 5.625-3.709q.5-.333.791-.791.292-.459.292-1.042 0-.542-.292-1.042-.291-.5-.791-.791l-5.625-3.709q-1.125-.708-2.292-.104-1.167.604-1.167 1.938v7.416q0 1.334 1.167 1.959t2.292-.125ZM8.208 36.208q-1.833 0-3.125-1.291-1.291-1.292-1.291-3.125V8.208q0-1.833 1.291-3.146Q6.375 3.75 8.208 3.75h23.584q1.833 0 3.146 1.312 1.312 1.313 1.312 3.146v23.584q0 1.833-1.312 3.125-1.313 1.291-3.146 1.291Zm0-4.416h23.584V8.208H8.208v23.584Zm0 0V8.208v23.584Z"/></svg>

<svg xmlns="http://www.w3.org/2000/svg" height="40" width="40"><path d="M19.167 25.542 24.792 21.833Q25.292 21.5 25.583 21.042Q25.875 20.583 25.875 20Q25.875 19.458 25.583 18.958Q25.292 18.458 24.792 18.167L19.167 14.458Q18.042 13.75 16.875 14.354Q15.708 14.958 15.708 16.292V23.708Q15.708 25.042 16.875 25.667Q18.042 26.292 19.167 25.542ZM8.208 36.208Q6.375 36.208 5.083 34.917Q3.792 33.625 3.792 31.792V8.208Q3.792 6.375 5.083 5.062Q6.375 3.75 8.208 3.75H31.792Q33.625 3.75 34.938 5.062Q36.25 6.375 36.25 8.208V31.792Q36.25 33.625 34.938 34.917Q33.625 36.208 31.792 36.208ZM8.208 31.792H31.792Q31.792 31.792 31.792 31.792Q31.792 31.792 31.792 31.792V8.208Q31.792 8.208 31.792 8.208Q31.792 8.208 31.792 8.208H8.208Q8.208 8.208 8.208 8.208Q8.208 8.208 8.208 8.208V31.792Q8.208 31.792 8.208 31.792Q8.208 31.792 8.208 31.792ZM8.208 31.792Q8.208 31.792 8.208 31.792Q8.208 31.792 8.208 31.792V8.208Q8.208 8.208 8.208 8.208Q8.208 8.208 8.208 8.208Q8.208 8.208 8.208 8.208Q8.208 8.208 8.208 8.208V31.792Q8.208 31.792 8.208 31.792Q8.208 31.792 8.208 31.792Z"/></svg>
